Newaita-dark/devices/22/drive-optical.svg

<svg height="22pt" viewBox="0 0 22 22" width="22pt" xmlns="http://www.w3.org/2000/svg" xmlns:xlink="http://www.w3.org/1999/xlink"><linearGradient id="a"><stop offset="0" stop-opacity=".313725"/><stop offset=".222222" stop-opacity=".27451"/><stop offset="1" stop-opacity="0"/></linearGradient><radialGradient id="b" cx="450.90894" cy="189.57936" gradientTransform="matrix(.00000012 -.0537161 -.0966889 -.00000007 30.609667 43.721791)" gradientUnits="userSpaceOnUse" r="21.166656" xlink:href="#a"/><radialGradient id="c" cx="450.90894" cy="189.57936" gradientTransform="matrix(-.00000012 .0537161 .0966889 .00000007 -8.779458 -5.175143)" gradientUnits="userSpaceOnUse" r="21.166656" xlink:href="#a"/><radialGradient id="d" cx="450.90894" cy="189.57936" gradientTransform="matrix(-.00000012 -.0537161 .0966889 -.00000007 -8.779458 43.721791)" gradientUnits="userSpaceOnUse" r="21.166656" xlink:href="#a"/><radialGradient id="e" cx="450.90894" cy="189.57936" gradientTransform="matrix(.00000012 .0537161 -.0966889 .00000007 30.609666 -5.175144)" gradientUnits="userSpaceOnUse" r="21.166656" xlink:href="#a"/><linearGradient id="f" gradientTransform="matrix(.00918504 0 0 .0429729 8.569953 9.239164)" gradientUnits="userSpaceOnUse" x1="255.32306" x2="255.32304" y1="233.5" y2="254.66666"><stop offset="0" stop-opacity=".27451"/><stop offset="1" stop-opacity="0"/></linearGradient><linearGradient id="g" gradientUnits="userSpaceOnUse" x1="960.000112" x2="960.000112" y1="175.11802806824" y2="1695.118218"><stop offset="0" stop-color="#757575"/><stop offset="1" stop-color="#616161"/></linearGradient><linearGradient id="h" gradientUnits="userSpaceOnUse" x1="960.000112" x2="960.000112" y1="1255.11819186352" y2="615.118092"><stop offset="0" stop-color="#f5f5f5"/><stop offset="1" stop-color="#e0e0e0"/></linearGradient><path d="m12.507812 19.273438h1.816407v-.910157h-1.816407zm0 0" fill="url(#b)"/><path d="m9.324219 19.273438h-1.820313v.910156h1.820313zm0 0" fill="url(#c)"/><path d="m9.324219 19.273438h-1.820313v-.910157h1.820313zm0 0" fill="url(#d)"/><path d="m12.507812 19.273438h1.816407v.910156h-1.816407zm0 0" fill="url(#e)"/><path d="m9.324219 19.046875h3.183593v1.136719h-3.183593zm0 0" fill="url(#f)"/><path d="m959.908345 175.215911c-420.861747 0-759.95607 338.750762-759.95607 759.95607 0 420.861748 339.094323 759.956071 759.95607 759.956071 421.205309 0 759.956071-339.094323 759.956071-759.956071 0-421.205308-338.750762-759.95607-759.956071-759.95607zm0 599.856826c88.638638 0 160.099245 71.460607 160.099245 160.099244 0 88.638638-71.460607 160.099245-160.099245 160.099245-88.638637 0-159.755683-71.460607-159.755683-160.099245 0-88.638637 71.117046-160.099244 159.755683-160.099244zm0 0" fill="url(#g)" stroke="#333" stroke-linecap="round" stroke-width="11.338583" transform="scale(.0113699)"/><path d="m10.914062 19.273438c-4.785156 0-8.640624-3.855469-8.640624-8.640626 0-.027343 0-.058593 0-.085937.046874 4.75 3.882812 8.558594 8.640624 8.558594 4.761719 0 8.597657-3.808594 8.640626-8.558594v.085937c0 4.785157-3.851563 8.640626-8.640626 8.640626zm0 0" fill-opacity=".196078"/><path d="m4.761719 4.664062c-.511719.523438-.957031 1.105469-1.320313 1.738282-.367187.632812-.652344 1.308594-.847656 2.011718l1.941406.523438c.296875-1.074219.863282-2.058594 1.644532-2.851562zm1.78125 1.78125c-.71875.730469-1.238281 1.636719-1.515625 2.625l4.136718 1.105469c.078126-.261719.21875-.5.402344-.703125zm6.085937 4.792969c-.042968.132813-.097656.257813-.164062.375-.070313.117188-.152344.230469-.242188.328125l3.027344 3.03125c.71875-.734375 1.238281-1.636718 1.511719-2.625zm4.628906 1.238281c-.300781 1.078126-.867187 2.058594-1.648437 2.855469l1.421875 1.417969c.511719-.519531.953125-1.105469 1.316406-1.738281.367188-.632813.652344-1.308594.847656-2.011719zm0 0" fill="#fff" fill-opacity=".156863"/><path d="m10.914062 1.992188c-4.785156 0-8.640624 3.851562-8.640624 8.640624v.085938c.046874-4.75 3.882812-8.558594 8.640624-8.558594 4.761719 0 8.597657 3.808594 8.640626 8.558594 0-.03125 0-.058594 0-.085938 0-4.789062-3.851563-8.640624-8.640626-8.640624zm0 0" fill="#fff" fill-opacity=".588235"/><path d="m10.914062 1.925781c-4.820312 0-8.703124 3.882813-8.703124 8.707031 0 4.820313 3.882812 8.703126 8.703124 8.703126 4.824219 0 8.707032-3.882813 8.707032-8.703126 0-4.824218-3.882813-8.707031-8.707032-8.707031zm0 .128907c4.753907 0 8.578126 3.824218 8.578126 8.578124 0 4.75-3.824219 8.574219-8.578126 8.574219-4.75 0-8.574218-3.824219-8.574218-8.574219 0-4.753906 3.824218-8.578124 8.574218-8.578124zm0 0" fill="#212121"/><path d="m959.908345 614.973493c-177.277275 0-319.854928 142.921214-319.854928 320.198488 0 177.277275 142.577653 319.854929 319.854928 319.854929s320.198489-142.577654 320.198489-319.854929c0-177.277274-142.921214-320.198488-320.198489-320.198488zm0 160.099244c88.638638 0 160.099245 71.460607 160.099245 160.099244 0 88.638638-71.460607 160.099245-160.099245 160.099245-88.638637 0-159.755683-71.460607-159.755683-160.099245 0-88.638637 71.117046-160.099244 159.755683-160.099244zm0 0" fill="url(#h)" stroke="#333" stroke-linecap="round" stroke-width="11.338583" transform="scale(.0113699)"/></svg>

<?xml version="1.0" encoding="UTF-8"?>
<svg xmlns="http://www.w3.org/2000/svg" xmlns:xlink="http://www.w3.org/1999/xlink" width="22pt" height="22pt" viewBox="0 0 22 22" version="1.1">
<defs>
<radialGradient id="radial0" gradientUnits="userSpaceOnUse" cx="450.90894" cy="189.57936" fx="450.90894" fy="189.57936" r="21.166656" gradientTransform="matrix(0.000000119742,-0.0537161,-0.0966889,-0.0000000698078,30.609667,43.721791)">
<stop offset="0" style="stop-color:rgb(0%,0%,0%);stop-opacity:0.313725;"/>
<stop offset="0.222222" style="stop-color:rgb(0%,0%,0%);stop-opacity:0.27451;"/>
<stop offset="1" style="stop-color:rgb(0%,0%,0%);stop-opacity:0;"/>
</radialGradient>
<radialGradient id="radial1" gradientUnits="userSpaceOnUse" cx="450.90894" cy="189.57936" fx="450.90894" fy="189.57936" r="21.166656" gradientTransform="matrix(-0.000000119742,0.0537161,0.0966889,0.0000000698078,-8.779458,-5.175143)">
<stop offset="0" style="stop-color:rgb(0%,0%,0%);stop-opacity:0.313725;"/>
<stop offset="0.222222" style="stop-color:rgb(0%,0%,0%);stop-opacity:0.27451;"/>
<stop offset="1" style="stop-color:rgb(0%,0%,0%);stop-opacity:0;"/>
</radialGradient>
<radialGradient id="radial2" gradientUnits="userSpaceOnUse" cx="450.90894" cy="189.57936" fx="450.90894" fy="189.57936" r="21.166656" gradientTransform="matrix(-0.000000119742,-0.0537161,0.0966889,-0.0000000698078,-8.779458,43.721791)">
<stop offset="0" style="stop-color:rgb(0%,0%,0%);stop-opacity:0.313725;"/>
<stop offset="0.222222" style="stop-color:rgb(0%,0%,0%);stop-opacity:0.27451;"/>
<stop offset="1" style="stop-color:rgb(0%,0%,0%);stop-opacity:0;"/>
</radialGradient>
<radialGradient id="radial3" gradientUnits="userSpaceOnUse" cx="450.90894" cy="189.57936" fx="450.90894" fy="189.57936" r="21.166656" gradientTransform="matrix(0.000000119742,0.0537161,-0.0966889,0.0000000698078,30.609666,-5.175144)">
<stop offset="0" style="stop-color:rgb(0%,0%,0%);stop-opacity:0.313725;"/>
<stop offset="0.222222" style="stop-color:rgb(0%,0%,0%);stop-opacity:0.27451;"/>
<stop offset="1" style="stop-color:rgb(0%,0%,0%);stop-opacity:0;"/>
</radialGradient>
<linearGradient id="linear0" gradientUnits="userSpaceOnUse" x1="255.32306" y1="233.5" x2="255.32304" y2="254.66666" gradientTransform="matrix(0.00918504,0,0,0.0429729,8.569953,9.239164)">
<stop offset="0" style="stop-color:rgb(0%,0%,0%);stop-opacity:0.27451;"/>
<stop offset="1" style="stop-color:rgb(0%,0%,0%);stop-opacity:0;"/>
</linearGradient>
<linearGradient id="linear1" gradientUnits="userSpaceOnUse" x1="254" y1="-168.66667" x2="254" y2="233.5" gradientTransform="matrix(3.779528,0,0,3.779528,0,812.59843)">
<stop offset="0" style="stop-color:rgb(45.882353%,45.882353%,45.882353%);stop-opacity:1;"/>
<stop offset="1" style="stop-color:rgb(38.039216%,38.039216%,38.039216%);stop-opacity:1;"/>
</linearGradient>
<linearGradient id="linear2" gradientUnits="userSpaceOnUse" x1="254" y1="117.08334" x2="254" y2="-52.25" gradientTransform="matrix(3.779528,0,0,3.779528,0,812.59843)">
<stop offset="0" style="stop-color:rgb(96.078431%,96.078431%,96.078431%);stop-opacity:1;"/>
<stop offset="1" style="stop-color:rgb(87.843137%,87.843137%,87.843137%);stop-opacity:1;"/>
</linearGradient>
</defs>
<g id="surface1">
<path style=" stroke:none;fill-rule:nonzero;fill:url(#radial0);" d="M 12.507812 19.273438 L 14.324219 19.273438 L 14.324219 18.363281 L 12.507812 18.363281 Z M 12.507812 19.273438 "/>
<path style=" stroke:none;fill-rule:nonzero;fill:url(#radial1);" d="M 9.324219 19.273438 L 7.503906 19.273438 L 7.503906 20.183594 L 9.324219 20.183594 Z M 9.324219 19.273438 "/>
<path style=" stroke:none;fill-rule:nonzero;fill:url(#radial2);" d="M 9.324219 19.273438 L 7.503906 19.273438 L 7.503906 18.363281 L 9.324219 18.363281 Z M 9.324219 19.273438 "/>
<path style=" stroke:none;fill-rule:nonzero;fill:url(#radial3);" d="M 12.507812 19.273438 L 14.324219 19.273438 L 14.324219 20.183594 L 12.507812 20.183594 Z M 12.507812 19.273438 "/>
<path style=" stroke:none;fill-rule:nonzero;fill:url(#linear0);" d="M 9.324219 19.046875 L 12.507812 19.046875 L 12.507812 20.183594 L 9.324219 20.183594 Z M 9.324219 19.046875 "/>
<path style="fill-rule:nonzero;fill:url(#linear1);stroke-width:11.338583;stroke-linecap:round;stroke-linejoin:miter;stroke:rgb(20%,20%,20%);stroke-opacity:1;stroke-miterlimit:4;" d="M 959.908345 175.215911 C 539.046598 175.215911 199.952275 513.966673 199.952275 935.171981 C 199.952275 1356.033729 539.046598 1695.128052 959.908345 1695.128052 C 1381.113654 1695.128052 1719.864416 1356.033729 1719.864416 935.171981 C 1719.864416 513.966673 1381.113654 175.215911 959.908345 175.215911 Z M 959.908345 775.072737 C 1048.546983 775.072737 1120.00759 846.533344 1120.00759 935.171981 C 1120.00759 1023.810619 1048.546983 1095.271226 959.908345 1095.271226 C 871.269708 1095.271226 800.152662 1023.810619 800.152662 935.171981 C 800.152662 846.533344 871.269708 775.072737 959.908345 775.072737 Z M 959.908345 775.072737 " transform="matrix(0.0113699,0,0,0.0113699,0,0)"/>
<path style=" stroke:none;fill-rule:nonzero;fill:rgb(0%,0%,0%);fill-opacity:0.196078;" d="M 10.914062 19.273438 C 6.128906 19.273438 2.273438 15.417969 2.273438 10.632812 C 2.273438 10.605469 2.273438 10.574219 2.273438 10.546875 C 2.320312 15.296875 6.15625 19.105469 10.914062 19.105469 C 15.675781 19.105469 19.511719 15.296875 19.554688 10.546875 C 19.554688 10.574219 19.554688 10.605469 19.554688 10.632812 C 19.554688 15.417969 15.703125 19.273438 10.914062 19.273438 Z M 10.914062 19.273438 "/>
<path style=" stroke:none;fill-rule:nonzero;fill:rgb(100%,100%,100%);fill-opacity:0.156863;" d="M 4.761719 4.664062 C 4.25 5.1875 3.804688 5.769531 3.441406 6.402344 C 3.074219 7.035156 2.789062 7.710938 2.59375 8.414062 L 4.535156 8.9375 C 4.832031 7.863281 5.398438 6.878906 6.179688 6.085938 Z M 6.542969 6.445312 C 5.824219 7.175781 5.304688 8.082031 5.027344 9.070312 L 9.164062 10.175781 C 9.242188 9.914062 9.382812 9.675781 9.566406 9.472656 Z M 12.628906 11.238281 C 12.585938 11.371094 12.53125 11.496094 12.464844 11.613281 C 12.394531 11.730469 12.3125 11.84375 12.222656 11.941406 L 15.25 14.972656 C 15.96875 14.238281 16.488281 13.335938 16.761719 12.347656 Z M 17.257812 12.476562 C 16.957031 13.554688 16.390625 14.535156 15.609375 15.332031 L 17.03125 16.75 C 17.542969 16.230469 17.984375 15.644531 18.347656 15.011719 C 18.714844 14.378906 19 13.703125 19.195312 13 Z M 17.257812 12.476562 "/>
<path style=" stroke:none;fill-rule:nonzero;fill:rgb(100%,100%,100%);fill-opacity:0.588235;" d="M 10.914062 1.992188 C 6.128906 1.992188 2.273438 5.84375 2.273438 10.632812 C 2.273438 10.660156 2.273438 10.6875 2.273438 10.71875 C 2.320312 5.96875 6.15625 2.160156 10.914062 2.160156 C 15.675781 2.160156 19.511719 5.96875 19.554688 10.71875 C 19.554688 10.6875 19.554688 10.660156 19.554688 10.632812 C 19.554688 5.84375 15.703125 1.992188 10.914062 1.992188 Z M 10.914062 1.992188 "/>
<path style=" stroke:none;fill-rule:nonzero;fill:rgb(12.941176%,12.941176%,12.941176%);fill-opacity:1;" d="M 10.914062 1.925781 C 6.09375 1.925781 2.210938 5.808594 2.210938 10.632812 C 2.210938 15.453125 6.09375 19.335938 10.914062 19.335938 C 15.738281 19.335938 19.621094 15.453125 19.621094 10.632812 C 19.621094 5.808594 15.738281 1.925781 10.914062 1.925781 Z M 10.914062 2.054688 C 15.667969 2.054688 19.492188 5.878906 19.492188 10.632812 C 19.492188 15.382812 15.667969 19.207031 10.914062 19.207031 C 6.164062 19.207031 2.339844 15.382812 2.339844 10.632812 C 2.339844 5.878906 6.164062 2.054688 10.914062 2.054688 Z M 10.914062 2.054688 "/>
<path style="fill-rule:nonzero;fill:url(#linear2);stroke-width:11.338583;stroke-linecap:round;stroke-linejoin:miter;stroke:rgb(20%,20%,20%);stroke-opacity:1;stroke-miterlimit:4;" d="M 959.908345 614.973493 C 782.63107 614.973493 640.053417 757.894707 640.053417 935.171981 C 640.053417 1112.449256 782.63107 1255.02691 959.908345 1255.02691 C 1137.18562 1255.02691 1280.106834 1112.449256 1280.106834 935.171981 C 1280.106834 757.894707 1137.18562 614.973493 959.908345 614.973493 Z M 959.908345 775.072737 C 1048.546983 775.072737 1120.00759 846.533344 1120.00759 935.171981 C 1120.00759 1023.810619 1048.546983 1095.271226 959.908345 1095.271226 C 871.269708 1095.271226 800.152662 1023.810619 800.152662 935.171981 C 800.152662 846.533344 871.269708 775.072737 959.908345 775.072737 Z M 959.908345 775.072737 " transform="matrix(0.0113699,0,0,0.0113699,0,0)"/>
</g>
</svg>
